X:1
T:Title
%%score { 1 | 2 }
L:1/8
M:3/4
K:Eb
V:1 treble nm="Grand Piano"
V:2 bass 
V:1
 z2 z2[Q:1/4=100] [EB]2 | [GB]>[GB] [GB]2 [Ge]2 | G>G G2 [FB]2 | E>E E2 [DF]2 |[M:2/4] [EG]4 | %5
[M:1/4] [EB]2 |[M:3/4] [GB]>[GB] [GB]2 [Ge]2 | G>G G2 [FB]2 | [G,E]>[G,CE] [G,CE]2 [B,DF]2 | %9
[M:2/4] [B,EG]4 |[M:1/4] [B,GB]2 |[M:3/4] [B,FA]>[B,EG] [DF]2 [B,FA]2 | %12
 [B,EG]>[B,EA] [B,EB]2 [Ge]2 | [Af]>[Fd] [DB]2 [FA]2 | [FA]2 [EG]2 [DF]2 | G>A B2 G2 | c>d e2 c2 | %17
 B>A G2 [DF]2 |[M:2/4] E4 |] %19
V:2
 z2 z2 [E,G,]2 | [E,B,]>[E,B,] [E,B,]2 [E,B,]2 | [E,B,E]>[E,B,E] [E,B,E]2 [D,F,]2 | %3
 [C,G,]>[C,G,C] [C,G,C]2 [B,,B,]2 |[M:2/4] [E,B,]4 |[M:1/4] [E,G,]2 | %6
[M:3/4] [E,B,]>[E,B,] [E,B,]2 [E,B,]2 | [E,B,E]>[E,B,E] [E,B,E]2 [D,F,]2 | C,>C, C,2 B,,2 | %9
[M:2/4] E,4 |[M:1/4] E,2 |[M:3/4] D,>E, B,2 B,,2 | E,>F, G,2 [E,B,]2 | %13
 [B,,B,]>[B,,B,] [B,,B,]2 [D,B,]2 | [E,B,]4 [B,,B,]2 | [E,B,E]>[F,B,E] [G,B,E]2 [E,E]2 | %16
 [A,EA]>[B,EA] [CEA]2 [A,EA]2 | [G,B,E]>[A,CE] [B,E]2 [B,,A,]2 |[M:2/4] [E,G,]4 |] %19

